Yaru++/actions/16/format-text-lowercase.svg

<svg viewBox="0 0 24 24" xmlns="http://www.w3.org/2000/svg">
  <path d="m13 8v8 4h1v-1.361328a4 4 0 0 0 3 1.361328 4 4 0 0 0 4-4 4 4 0 0 0 -4-4 4 4 0 0 0 -3 1.361328v-5.361328zm-6 4a4 4 0 0 0 -4 4 4 4 0 0 0 4 4 4 4 0 0 0 3-1.361328v1.361328h1v-8h-1v1.361328a4 4 0 0 0 -3-1.361328zm0 1a3 3 0 0 1 3 3 3 3 0 0 1 -3 3 3 3 0 0 1 -3-3 3 3 0 0 1 3-3zm10 0a3 3 0 0 1 3 3 3 3 0 0 1 -3 3 3 3 0 0 1 -3-3 3 3 0 0 1 3-3z" fill="#808080"/>
  <path d="m14 4 3 4 3-4z" fill="#1d99f3"/>
</svg>

<svg xmlns="http://www.w3.org/2000/svg" viewBox="0 0 24 24">
 <defs>
  <style id="current-color-scheme" type="text/css">
   .ColorScheme-Text { color:#808080; } .ColorScheme-Highlight { color:#1d99f3; }
  </style>
 </defs>
 <path style="fill:currentColor" class="ColorScheme-Text" d="M 13 8 L 13 16 L 13 20 L 14 20 L 14 18.638672 A 4 4 0 0 0 17 20 A 4 4 0 0 0 21 16 A 4 4 0 0 0 17 12 A 4 4 0 0 0 14 13.361328 L 14 8 L 13 8 z M 7 12 A 4 4 0 0 0 3 16 A 4 4 0 0 0 7 20 A 4 4 0 0 0 10 18.638672 L 10 20 L 11 20 L 11 12 L 10 12 L 10 13.361328 A 4 4 0 0 0 7 12 z M 7 13 A 3 3 0 0 1 10 16 A 3 3 0 0 1 7 19 A 3 3 0 0 1 4 16 A 3 3 0 0 1 7 13 z M 17 13 A 3 3 0 0 1 20 16 A 3 3 0 0 1 17 19 A 3 3 0 0 1 14 16 A 3 3 0 0 1 17 13 z"/>
 <path style="fill:currentColor" class="ColorScheme-Highlight" d="M 14 4 L 17 8 L 20 4 L 14 4 z"/>
</svg>
